build/img/svg/xls.svg

<svg width="40" height="44" viewBox="0 0 40 44" fill="none" xmlns="http://www.w3.org/2000/svg">
<path d="M7 21V3C7 1.896 7.896 1 9 1H31L39 9V41C39 42.104 38.104 43 37 43H9C7.896 43 7 42.104 7 41V36" fill="#F5F5F7"/>
<path d="M7 21V3C7 1.896 7.896 1 9 1H31L39 9V41C39 42.104 38.104 43 37 43H9C7.896 43 7 42.104 7 41V36" stroke="#D9D9DE" stroke-width="2" stroke-miterlimit="10"/>
<path d="M36 10H30V4" stroke="#D9D9DE" stroke-width="2" stroke-miterlimit="10"/>
<path d="M24.2069 36H1.7931C0.80331 36 0 35.104 0 34V23C0 21.896 0.80331 21 1.7931 21H24.2069C25.1967 21 26 21.896 26 23V34C26 35.104 25.1967 36 24.2069 36Z" fill="#0061D9"/>
<path d="M6.63883 28.688L4.59883 25.64H6.36283L7.75483 27.68L9.12283 25.64H10.8388L8.82283 28.628L10.9588 32H9.18283L7.69483 29.624L6.21883 32H4.47883L6.63883 28.688ZM14.0226 32.072C13.6546 32.072 13.3386 32.04 13.0746 31.976C12.8106 31.904 12.5906 31.784 12.4146 31.616C12.2466 31.448 12.1226 31.224 12.0426 30.944C11.9626 30.656 11.9226 30.3 11.9226 29.876V23.6H13.5066V29.684C13.5066 30.092 13.5666 30.368 13.6866 30.512C13.8066 30.656 14.0386 30.728 14.3826 30.728C14.4706 30.728 14.5466 30.728 14.6106 30.728C14.6746 30.72 14.7386 30.712 14.8026 30.704V32.036C14.7386 32.052 14.6226 32.06 14.4546 32.06C14.2866 32.068 14.1426 32.072 14.0226 32.072ZM18.4035 32.144C17.8835 32.144 17.4435 32.088 17.0835 31.976C16.7315 31.864 16.4435 31.716 16.2195 31.532C16.0035 31.348 15.8395 31.136 15.7275 30.896C15.6155 30.656 15.5475 30.404 15.5235 30.14H17.1075C17.1475 30.348 17.2715 30.52 17.4795 30.656C17.6875 30.784 17.9955 30.848 18.4035 30.848C18.8675 30.848 19.1995 30.784 19.3995 30.656C19.5995 30.528 19.6995 30.364 19.6995 30.164C19.6995 30.06 19.6755 29.972 19.6275 29.9C19.5795 29.82 19.4955 29.748 19.3755 29.684C19.2635 29.62 19.1075 29.564 18.9075 29.516C18.7075 29.468 18.4555 29.42 18.1515 29.372C17.8075 29.324 17.4875 29.256 17.1915 29.168C16.8955 29.08 16.6355 28.96 16.4115 28.808C16.1955 28.656 16.0235 28.468 15.8955 28.244C15.7675 28.012 15.7035 27.732 15.7035 27.404C15.7035 27.14 15.7635 26.892 15.8835 26.66C16.0035 26.428 16.1795 26.228 16.4115 26.06C16.6435 25.884 16.9275 25.748 17.2635 25.652C17.5995 25.548 17.9795 25.496 18.4035 25.496C18.8595 25.496 19.2475 25.552 19.5675 25.664C19.8955 25.776 20.1635 25.928 20.3715 26.12C20.5795 26.304 20.7355 26.516 20.8395 26.756C20.9435 26.996 21.0115 27.244 21.0435 27.5H19.4595C19.3955 27.268 19.2715 27.092 19.0875 26.972C18.9035 26.852 18.6755 26.792 18.4035 26.792C18.0035 26.792 17.7155 26.856 17.5395 26.984C17.3715 27.104 17.2875 27.256 17.2875 27.44C17.2875 27.536 17.3075 27.62 17.3475 27.692C17.3875 27.764 17.4595 27.828 17.5635 27.884C17.6755 27.94 17.8235 27.992 18.0075 28.04C18.1995 28.08 18.4395 28.12 18.7275 28.16C19.0875 28.208 19.4195 28.28 19.7235 28.376C20.0355 28.464 20.3075 28.584 20.5395 28.736C20.7715 28.888 20.9515 29.08 21.0795 29.312C21.2155 29.544 21.2835 29.82 21.2835 30.14C21.2835 30.428 21.2235 30.696 21.1035 30.944C20.9835 31.184 20.8035 31.396 20.5635 31.58C20.3235 31.756 20.0235 31.896 19.6635 32C19.3035 32.096 18.8835 32.144 18.4035 32.144Z" fill="white"/>
</svg>

<svg width="40" height="44" fill="none" xmlns="http://www.w3.org/2000/svg"><path d="M7 21V3a2 2 0 012-2h22l8 8v32a2 2 0 01-2 2H9a2 2 0 01-2-2v-5" fill="#F5F5F7"/><path d="M7 21V3a2 2 0 012-2h22l8 8v32a2 2 0 01-2 2H9a2 2 0 01-2-2v-5" stroke="#D9D9DE" stroke-width="2" stroke-miterlimit="10"/><path d="M36 10h-6V4" stroke="#D9D9DE" stroke-width="2" stroke-miterlimit="10"/><path d="M24.207 36H1.793C.803 36 0 35.104 0 34V23c0-1.104.803-2 1.793-2h22.414c.99 0 1.793.896 1.793 2v11c0 1.104-.803 2-1.793 2z" fill="#0061D9"/><path d="M6.639 28.688l-2.04-3.048h1.764l1.392 2.04 1.368-2.04h1.716l-2.016 2.988L10.959 32H9.183l-1.488-2.376L6.219 32h-1.74l2.16-3.312zm7.384 3.384c-.368 0-.684-.032-.948-.096a1.513 1.513 0 01-.66-.36 1.519 1.519 0 01-.372-.672 4.053 4.053 0 01-.12-1.068V23.6h1.584v6.084c0 .408.06.684.18.828.12.144.352.216.696.216h.228l.192-.024v1.332c-.064.016-.18.024-.348.024a9.278 9.278 0 01-.432.012zm4.38.072c-.52 0-.96-.056-1.32-.168a2.58 2.58 0 01-.863-.444 1.87 1.87 0 01-.492-.636 2.258 2.258 0 01-.204-.756h1.584c.04.208.163.38.372.516.207.128.515.192.924.192.463 0 .796-.064.995-.192.2-.128.3-.292.3-.492a.465.465 0 00-.072-.264.627.627 0 00-.252-.216 1.824 1.824 0 00-.468-.168 9.95 9.95 0 00-.756-.144 6.542 6.542 0 01-.96-.204 2.8 2.8 0 01-.78-.36 1.737 1.737 0 01-.516-.564 1.715 1.715 0 01-.191-.84c0-.264.06-.512.18-.744.12-.232.296-.432.527-.6.232-.176.516-.312.852-.408a3.851 3.851 0 011.14-.156c.457 0 .845.056 1.165.168.327.112.595.264.803.456.209.184.364.396.469.636.104.24.172.488.204.744h-1.585a.885.885 0 00-.372-.528 1.227 1.227 0 00-.683-.18c-.4 0-.689.064-.864.192-.168.12-.252.272-.252.456 0 .096.02.18.06.252a.51.51 0 00.216.192c.111.056.26.108.444.156.192.04.431.08.72.12.36.048.691.12.995.216.313.088.585.208.817.36a1.615 1.615 0 01.744 1.404c0 .288-.06.556-.18.804-.12.24-.3.452-.54.636-.24.176-.54.316-.9.42-.36.096-.78.144-1.26.144z" fill="#fff"/></svg>
